X: 1088
T: Ambrose Moloney's
R: reel
M: 4/4
K: Gmajor
|:B3G ABGE|DGBG ~A3c|BG~G2 A2ef|gedg eA~A2|
(3Bcd BG ABGE|DGBG ~A3c|BG~G2 A2ef|1 gedc BGGA:|2 gedc BG~G2||
|:dg~g2 agef|gedB GA (3Bcd|eaab agef|g2bg abge|
dg~g2 agef|gedB GA (3Bcd|e2ag egfa|1 gedc BG~G2:|2 gedc BGGA||

